X:1
T:Praise the Name of Jesus
T:Praise the Name of Jesus
T:James Milton Dungan
T:Helen Louisa Silcott Dungan, 1902
T:Public Domain Courtesy of the Cyber Hymnal™
C:James Milton Dungan
Z:Public Domain
Z:Courtesy of the Cyber Hymnal™
%%score ( 1 2 ) ( 3 4 )
L:1/8
Q:1/4=105
M:4/4
K:Bb
V:1 treble 
V:2 treble 
V:3 bass 
V:4 bass 
V:1
 [Fd]>[Ec] | [DB]2 F2 [EG]2 [EB]2 | [DF]>[EG] [DF]>[B,D] [DF]2 [B,D]>[CE] | %3
w: 1.~Praise the|name of Je- sus|for His ten- der care, Watch- ing|
w: 2.~For my|Sav- ior is my|ne- ver- fail- ing friend, Thro’ the|
w: 3.~Tho’ the|dark- ’ning sha- dows|round a- bout me creep, And the|
 [DF] [FB]3 [=EA]2 [EB]2 | [Ec]6 [Fd]>[Ec] | [DB]2 F2 [EG]2 [EB]2 | %6
w: o’er me ev- ery|day; He will|bear my bur- dens,|
w: night and thro’ the|day; On His|love I know I|
w: way is lone and|drear: By my|Sav- ior’s side I’ll|
 [DF]>[EG] [DF]>[B,D] [DF]2 [FB]>[Gc] | [Fd] [Fd]3 [Ec]2 [Ec]2 | [DB]6 ||"^Refrain" B>c | %10
w: hear my fee- ble prayer, And will|guide me when I|stray.||
w: al- ways can de- pend, So I’ll|praise Him ev- ery|day.|All the|
w: ev- er close- ly keep, Sing- ing|hap- py songs of|cheer.||
 (z2 c>)B x6 | (z2 [DB]>)[Ec] x6 | [Fd]2 [Fd]2 [=Ed]2 [Ec]>[EB] | [Ec]6 [Fd]>[Ec] | %14
w: ||||
w: * way,|* all|the way, I will praise|His name ev-|
w: ||||
 [DB]2 F2 [EG]2 [EB]2 | [DF]>[EG] [DF]>[B,D] [DF]2 [FB]>[Gc] | [Fd] [Fd]3 [Ec]2 [Ec]2 | [DB]6 |] %18
w: ||||
w: ery day; I am|hap- py in my bless- èd Sav-|ior’s love, And I’m|sing-|
w: ||||
V:2
 x2 | x2 F2 x4 | x8 | x8 | x8 | x2 F2 x4 | x8 | x8 | x6 || x2 | (d6 F>F F2) | (d6 F>F F2) | x8 | %13
 x8 | x2 F2 x4 | x8 | x8 | x6 |] %18
V:3
 [B,,B,]>[B,,B,] | [B,,B,]2 [D,B,]2 [E,B,]2 [G,B,]2 | %2
w: ~ ~|~ ~ ~ ~|
 B,>B, [B,,B,]>[B,,F,] [B,,B,]2 [B,,F,]>[B,,F,] | [B,,B,] [B,,D]3 [C,C]2 [G,B,]2 | %4
w: ~ ~ ~ ~ ~ ~ ~|~ ~ ~ ~|
 [F,A,]6 [F,A,]>[F,A,] | [B,,B,]2 [D,B,]2 [E,B,]2 [G,B,]2 | %6
w: ~ ~ ~|~ ~ ~ ~|
 B,>B, [B,,B,]>[B,,B,] [B,,B,]2 [D,B,]>[E,B,] | [F,B,] [F,B,]3 [F,A,]2 [F,A,]2 | [B,,B,]6 || z2 | %10
w: ~ ~ ~ ~ ~ ~ ~|~ ~ ~ ~|~||
 z2 [B,,B,]>[B,,B,] [B,,B,]2 z2 x2 | z2 [B,,B,]>[B,,B,] [B,,B,]2 [B,,B,]>[B,,B,] x2 | %12
w: All the way,|all the way, * *|
 [B,,B,]2 [B,,B,]2 [C,B,]2 [C,G,]>[C,B,] | [F,A,]6 [F,A,]>[F,A,] | %14
w: ||
 [B,,B,]2 [D,B,]2 [E,B,]2 [G,B,]2 | B,>B, [B,,B,]>[B,,B,] [B,,B,]2 [D,B,]>[E,B,] | %16
w: ||
 [F,B,] [F,B,]3 [F,A,]2 [F,A,]2 | [B,,B,]6 |] %18
w: ||
V:4
 x2 | x8 | B,>B, x6 | x8 | x8 | x8 | B,>B, x6 | x8 | x6 || x2 | x10 | x10 | x8 | x8 | x8 | %15
 B,>B, x6 | x8 | x6 |] %18

